X:1
T:The Forum Awakens - Flute
M:4/4
L:1/8
Q:1/4=95
K:Dm
%%MIDI program 73
% Bars 26-50: Playful melody, market vendors calling
z4 D2 F2 | A4 G2 F2 | E4 D4 | z4 D2 E2 |
F4 A4 | d4 c2 A2 | G4 F4 | z8 |
z4 A2 B2 | c4 d4 | c4 A2 G2 | F4 E4 |
D4 z4 | z4 F2 G2 | A4 c4 | d4 c2 A2 |
G4 F4 | z4 D2 F2 | A4 G2 F2 | E4 D4 |
z4 G2 A2 | B4 A4 | z4 D2 F2 | A4 G2 F2 |
D8 |
